X: 86
P: No. LXXXVI.
M: 3/4
L: 1/8
K: G
V: 1
(de)(dB)(dB) | Tg4 fe | (de)(dB)(AG) | G3 A B2 |\
|: (Bc) |\
(dedc) B2 | g4 (fg) | a4 (ga) | b3 (agf) |\
e4 (dB) | g3 a (g/a/b) | G3 (ABd) | {B}A4 |]
V: 2 clef=bass middle=d
z2 |\
c4 c'2 | b2 g2 z2 | G2 d2 g2 | d4 :|
|: (ga) |\
(bc'ba) g2 | z2 b2 ag | f2 d2 z2 | g3 (fed) |
c2 c'2 z2 | G2 d2 g2 | G2 d2 g2 | d4 |]

